assets/02_eyes/Eye 49.svg

<svg width="400" height="180" viewBox="0 0 400 180" fill="none" xmlns="http://www.w3.org/2000/svg">
<g clip-path="url(#clip0_70_1733)">
<path d="M352.774 23.0326C365.496 70.5125 336.685 119.483 288.421 132.415C240.157 145.348 190.721 117.343 177.999 69.8633L352.774 23.0326Z" fill="white"/>
</g>
<g clip-path="url(#clip1_70_1733)">
<path d="M48.1529 23.5248L48.2935 23L222.16 69.5874L222.014 70.1324C208.942 117.703 159.824 145.838 111.989 133.02C64.153 120.203 35.6475 71.2474 48.1529 23.5248Z" fill="white"/>
<path d="M73.9008 29.8612L196.534 62.7206C187.481 96.5071 152.689 116.561 118.83 107.489C84.9712 98.4161 64.8478 63.6476 73.9008 29.8612Z" fill="#3E962C"/>
<path d="M107.881 38.9663L162.574 53.621C158.539 68.6776 143.031 77.6094 127.942 73.5664C112.853 69.5233 103.867 54.0282 107.902 38.9717L107.881 38.9663Z" fill="white"/>
</g>
<defs>
<clipPath id="clip0_70_1733">
<rect width="180.94" height="89" fill="white" transform="translate(375.809 109) rotate(165)"/>
</clipPath>
<clipPath id="clip1_70_1733">
<rect width="180" height="90" fill="white" transform="translate(198.867 156.521) rotate(-165)"/>
</clipPath>
</defs>
</svg>

<svg xmlns="http://www.w3.org/2000/svg" width="400" height="180" fill="none" viewBox="0 0 400 180"><g clip-path="url(#a)"><path fill="#fff" d="M352.774 23.033c12.722 47.48-16.089 96.45-64.353 109.382s-97.7-15.072-110.422-62.552z"/></g><g clip-path="url(#b)"><path fill="#fff" d="m48.153 23.525.14-.525L222.16 69.587l-.146.545c-13.072 47.571-62.19 75.706-110.025 62.888-47.836-12.817-76.341-61.773-63.836-109.495"/><path fill="#3e962c" d="m73.9 29.861 122.634 32.86c-9.053 33.786-43.845 53.84-77.704 44.768S64.848 63.648 73.9 29.861"/><path fill="#fff" d="m107.881 38.966 54.693 14.655c-4.035 15.057-19.543 23.988-34.632 19.945s-24.075-19.538-20.04-34.594z"/></g><defs><clipPath id="a"><path fill="#fff" d="m375.809 109-174.775 46.83L178 69.864l174.775-46.83z"/></clipPath><clipPath id="b"><path fill="#fff" d="M198.867 156.521 25 109.934 48.294 23l173.867 46.588z"/></clipPath></defs></svg>
